src/assets/flags/AZN.svg

<svg width="512" height="512" viewBox="0 0 512 512" fill="none" xmlns="http://www.w3.org/2000/svg"><mask id="a" style="mask-type:alpha" maskUnits="userSpaceOnUse" x="0" y="0" width="512" height="512" viewBox="0 0 512 512"><path d="M256 512c141.385 0 256-114.615 256-256S397.385 0 256 0 0 114.615 0 256s114.615 256 256 256z" fill="#fff"/></mask><g mask="url(#a)"><path d="m0 167 253.8-19.3L512 167v178l-254.9 32.3L0 345V167z" fill="#D80027"/><path d="M0 0h512v167H0V0z" fill="#338AF3"/><path d="M0 345h512v167H0V345z" fill="#6DA544"/><path d="M261.807 328.35a72.313 72.313 0 0 1-31.684-7.41 72.312 72.312 0 0 1-38.884-50.087 72.311 72.311 0 0 1 15.549-61.473 72.306 72.306 0 0 1 89.419-17.03 88.996 88.996 0 0 0-96.737-18.379 89.001 89.001 0 1 0 96.737 145.679 72.007 72.007 0 0 1-34.4 8.7z" fill="#EEE"/><path d="m317.407 206.15 9.6 26.8 25.8-12.3-12.2 25.8 26.9 9.6-27 9.6 12.3 25.8-25.8-12.3-9.6 27-9.6-27-25.8 12.3 12.3-25.8-27-9.6 27-9.6-12.3-25.8 25.8 12.3 9.6-26.8z" fill="#EEE"/></g></svg>

<svg width="512" height="512" viewBox="0 0 512 512" fill="none" xmlns="http://www.w3.org/2000/svg">
<mask id="mask0_514_114" style="mask-type:alpha" maskUnits="userSpaceOnUse" x="0" y="0" width="512" height="512">
<path d="M256 512C397.385 512 512 397.385 512 256C512 114.615 397.385 0 256 0C114.615 0 0 114.615 0 256C0 397.385 114.615 512 256 512Z" fill="white"/>
</mask>
<g mask="url(#mask0_514_114)">
<path d="M0 167L253.8 147.7L512 167V345L257.1 377.3L0 345V167Z" fill="#D80027"/>
<path d="M0 0H512V167H0V0Z" fill="#338AF3"/>
<path d="M0 345H512V512H0V345Z" fill="#6DA544"/>
<path d="M261.807 328.35C250.82 328.319 239.984 325.785 230.123 320.94C220.262 316.094 211.635 309.065 204.897 300.386C198.16 291.708 193.489 281.607 191.239 270.853C188.99 260.098 189.221 248.973 191.915 238.321C194.61 227.669 199.696 217.772 206.788 209.38C213.881 200.989 222.792 194.324 232.846 189.892C242.9 185.461 253.831 183.379 264.81 183.805C275.789 184.23 286.526 187.153 296.207 192.35C283.68 180.107 267.82 171.833 250.612 168.564C233.404 165.295 215.614 167.176 199.47 173.971C183.327 180.767 169.547 192.175 159.858 206.767C150.168 221.358 145 238.484 145 256C145 273.516 150.168 290.642 159.858 305.233C169.547 319.825 183.327 331.233 199.47 338.029C215.614 344.824 233.404 346.705 250.612 343.436C267.82 340.167 283.68 331.893 296.207 319.65C285.645 325.374 273.82 328.365 261.807 328.35V328.35Z" fill="#EEEEEE"/>
<path d="M317.407 206.15L327.007 232.95L352.807 220.65L340.607 246.45L367.507 256.05L340.507 265.65L352.807 291.45L327.007 279.15L317.407 306.15L307.807 279.15L282.007 291.45L294.307 265.65L267.307 256.05L294.307 246.45L282.007 220.65L307.807 232.95L317.407 206.15Z" fill="#EEEEEE"/>
</g>
</svg>
